Catalina-light/actions/16/insert-link.svg

<?xml version="1.0" encoding="UTF-8" standalone="no"?>
<svg
   viewBox="0 0 16 16"
   version="1.1"
   id="svg6"
   sodipodi:docname="insert-link.svg"
   inkscape:version="1.1.2 (0a00cf5339, 2022-02-04)"
   xmlns:inkscape="http://www.inkscape.org/namespaces/inkscape"
   xmlns:sodipodi="http://sodipodi.sourceforge.net/DTD/sodipodi-0.dtd"
   xmlns="http://www.w3.org/2000/svg"
   xmlns:svg="http://www.w3.org/2000/svg">
  <sodipodi:namedview
     id="namedview8"
     pagecolor="#ffffff"
     bordercolor="#666666"
     borderopacity="1.0"
     inkscape:pageshadow="2"
     inkscape:pageopacity="0.0"
     inkscape:pagecheckerboard="0"
     showgrid="true"
     showguides="true"
     inkscape:guide-bbox="true"
     inkscape:zoom="45.254834"
     inkscape:cx="10.021029"
     inkscape:cy="6.8279998"
     inkscape:window-width="1920"
     inkscape:window-height="1031"
     inkscape:window-x="0"
     inkscape:window-y="24"
     inkscape:window-maximized="1"
     inkscape:current-layer="svg6"
     inkscape:lockguides="true">
    <inkscape:grid
       type="xygrid"
       id="grid1014"
       spacingx="0.5"
       spacingy="0.5" />
    <sodipodi:guide
       position="13.5,7.5"
       orientation="0,-1"
       id="guide2439"
       inkscape:locked="true" />
    <sodipodi:guide
       position="13.5,8.5"
       orientation="1,0"
       id="guide2441"
       inkscape:locked="true" />
    <sodipodi:guide
       position="5.5,10.5"
       orientation="1,0"
       id="guide2747"
       inkscape:locked="true" />
    <sodipodi:guide
       position="5.5,10.5"
       orientation="0,-1"
       id="guide2749"
       inkscape:locked="true" />
  </sodipodi:namedview>
  <defs
     id="defs3051">
    <style
       type="text/css"
       id="current-color-scheme">
      .ColorScheme-Text {
        color:#363636;
      }
      </style>
  </defs>
  <path
     id="rect847"
     style="fill:#1a1a1a;fill-opacity:1;stroke-width:5.66929;stroke-linecap:round;stroke-linejoin:round"
     d="m 7,11.5 -1.4995878,2.56e-4 C 3.5614123,11.500587 2.4993094,10.4418 2.4993094,8.5027997 c 0,-1.939 1.0656672,-2.9935476 3.0046532,-3.000915 L 7,5.5 V 4 H 5 C 2.784,4 1,6 1,8 v 1 c 0,2 1.784,4 4,4 H 7 Z M 9,13 h 2 c 2.216,0 4,-2 4,-4 V 8 C 15,6 13.216,4 11,4 H 9 v 1.5 l 1.497629,0.00522 c 1.938989,0.00676 3.004028,1.0581747 3.004028,2.9971747 0,1.9390003 -1.063466,2.9941203 -3.002464,2.9968883 L 9,11.5 Z"
     sodipodi:nodetypes="csssccsssscccssssccssscc" />
  <rect
     style="fill:#010101;stroke-width:5.66929;stroke-linecap:round;stroke-linejoin:round"
     id="rect945"
     width="7.5"
     height="1"
     x="4"
     y="8"
     rx="0.5"
     ry="0.5" />
</svg>

<svg version="1.1" viewBox="0 0 16 16" xmlns="http://www.w3.org/2000/svg">
<defs>
<style id="current-color-scheme" type="text/css">.ColorScheme-Text {
        color:#363636;
      }</style>
</defs>
<path d="m7 11.5-1.4996 2.56e-4c-1.939 3.31e-4 -3.0011-1.0585-3.0011-2.9975 0-1.939 1.0657-2.9935 3.0047-3.0009l1.496-0.0018847v-1.5h-2c-2.216 0-4 2-4 4v1c0 2 1.784 4 4 4h2zm2 1.5h2c2.216 0 4-2 4-4v-1c0-2-1.784-4-4-4h-2v1.5l1.4976 0.00522c1.939 0.00676 3.004 1.0582 3.004 2.9972 0 1.939-1.0635 2.9941-3.0025 2.9969l-1.4992 7.17e-4z" fill="#1a1a1a" stroke-linecap="round" stroke-linejoin="round" stroke-width="5.6693"/>
<rect x="4" y="8" width="7.5" height="1" rx=".5" ry=".5" fill="#010101" stroke-linecap="round" stroke-linejoin="round" stroke-width="5.6693"/>
</svg>
